assets/images/call-contacts.svg

<svg fill="none" height="16" viewBox="0 0 15 16" width="15" xmlns="http://www.w3.org/2000/svg"><path d="m14.5664 11.9983c-.7998-.6947-1.6841-1.2858-2.632-1.7594-.789-.3786-1.078-.37061-1.636.031-.46503.3357-.76502.6474-1.30002.5305-1.93419-1.02755-3.5169-2.60909-4.54501-4.54166-.113-.53848.20001-.8352.53101-1.29876.4-.55746.414-.84619.031-1.63444-.47163-.94835-1.0635-1.83211-1.76101-2.629481-.574-.573452-.69999-.44857-1.01899-.335678-.32559.137748-.63789.304952-.933.499523-.482142.274906-.872159.686106-1.121003 1.181866-.2230003.47954-.479999 1.37369.832003 3.70646.96803 1.78623 2.1942 3.42022 3.639 4.84937 1.4312 1.4429 3.06662 2.6681 4.85399 3.6365 2.33503 1.3108 3.22903 1.053 3.71003.8312.4979-.2462.9101-.6364 1.183-1.1199.1947-.2948.3621-.6068.5-.9321.116-.3127.243-.4416-.333-1.015z" fill="#000"/></svg>

<svg width="15" height="16" viewBox="0 0 15 16" fill="none" xmlns="http://www.w3.org/2000/svg">
<path d="M14.5664 11.9983C13.7666 11.3036 12.8823 10.7125 11.9344 10.2389C11.1454 9.8603 10.8564 9.86829 10.2984 10.2699C9.83337 10.6056 9.53338 10.9173 8.99838 10.8004C7.06419 9.77285 5.48148 8.19131 4.45337 6.25874C4.34037 5.72026 4.65338 5.42354 4.98438 4.95998C5.38438 4.40252 5.39838 4.11379 5.01538 3.32554C4.54375 2.37719 3.95188 1.49343 3.25437 0.696059C2.68037 0.122607 2.55438 0.247489 2.23538 0.360381C1.90979 0.498129 1.59749 0.665333 1.30238 0.859904C0.820238 1.13481 0.430221 1.54601 0.181377 2.04177C-0.0416233 2.52131 -0.298622 3.41546 1.01338 5.74823C1.98141 7.53446 3.20758 9.16845 4.65238 10.5976C6.08358 12.0405 7.719 13.2657 9.50637 14.2341C11.8414 15.5449 12.7354 15.2871 13.2164 15.0653C13.7143 14.8191 14.1265 14.4289 14.3994 13.9454C14.5941 13.6506 14.7615 13.3386 14.8994 13.0133C15.0154 12.7006 15.1424 12.5717 14.5664 11.9983Z" fill="black"/>
</svg>
